!!!OTL: "Der Landsturm" HUI AUF SCHREIT MAN DURCH DAS LAND
!!!ARE: Europa, Mitteleuropa, Tirol
!!!SCT: Z1138
!!!YEM: Copyright 1995, estate of Helmut Schaffrath.
**kern
*ICvox
*Ivox
*M2/4
*k[b-e-]
*B-:
{8ff
=1
4.ff
8dd
=2
4.dd}
{8dd
=3
4cc
8f
8f
=4
4.b-}
{8f
=5
8f
8dd
8b-
8f
=6
8f
8dd
8b-}
{8f
=7
8f
8ee-
8cc
8f
=8
4.b-}
{8ff
=9
4ff
8dd
8dd
=10
4.dd}
{8dd
=11
4cc
8f
8f
=12
4.b-}
{8f
=13
8f
8dd
8b-
8f
=14
8f
8dd
8b-}
{8f
=15
8f
8ee-
8cc
8f
=16
4b-
4r}
=17
{8cc
8cc
8f
8f
=18
8b-
8b-
4b-}
=19
{8cc
8cc
8f
8f
=20
8f
8b-
4b-}
=21
{8f
8dd
8b-
8f
=22
8f
8dd
8b-}
{8f
=23
8f
8ee-
8cc
8f
=24
2b-}
=25
{8cc
8cc
8f
8f
=26
8b-
8b-
4b-}
=27
{8cc
8cc
8f
8f
=28
8f
8b-
8b-}
==
!!!AGN: Vaterland und Wehr
!!!ONB: ESAC (Essen Associative Code) Database: ZUCCAL
!!!AMT: simple duple
!!!AIN: vox
!!!EED: Helmut Schaffrath
!!!EEV: 1.0
*-
